X:227 
T:Wind That Shakes the Barley (reel), The 
B:CRE3.202 (An Ghaoth a Chroitheann an Eorna)
F:file ID: cre.3/227wind
R:reel
L:1/8
Q:180
M:C
K:D
B|A2 (3FED ADED|BDAD B2dB|ADFD A2de|fded BddB|
AD (3FED AD (3FED|BDAD B2dB|ADFD A2de|fded Bdde||
f2ef g2eg|fedf e2de|fdd2 a3a|afed Bdde|
f2ef g2eg|fedf e2 (3ABc|defa afbf|afed BddB||

%%%

